assets/svg/solitude/moguls_top-2bYmaUm.svg

<svg height="72" viewBox="0 0 72 72" width="72" xmlns="http://www.w3.org/2000/svg"><g fill="#fff" fill-rule="evenodd" transform="translate(19 28)"><path d="m0 13.0043654c1.626-2.73 4.183-5.02000002 7.318-6.21000002 3.148-1.191 6.793-1.024 9.89.375 3.104 1.466 5.313 3.76000002 7.966 5.18500002 2.629 1.501 5.676 2.219 8.826 2.65-3.135.404-6.499.118-9.519-1.251-1.52-.641-2.893-1.56-4.21-2.426-1.304-.889-2.553-1.74900002-3.893-2.34000002-1.312-.641-2.759-.967-4.212-1.092-1.453-.15-2.926.005-4.365.377-2.874.795-5.535 2.52500002-7.801 4.73200002"/><path d="m0 0h34v1h-34z" stroke="#fff" stroke-width=".3"/></g></svg>

<?xml version="1.0" encoding="UTF-8"?>
<svg width="72px" height="72px" viewBox="0 0 72 72" version="1.1" xmlns="http://www.w3.org/2000/svg" xmlns:xlink="http://www.w3.org/1999/xlink">
    <!-- Generator: Sketch 58 (84663) - https://sketch.com -->
    <title>icons alone</title>
    <desc>Created with Sketch.</desc>
    <g id="icons-alone" stroke="none" stroke-width="1" fill="none" fill-rule="evenodd">
        <g id="Moguls-Top" transform="translate(19.000000, 28.000000)" fill="#FFFFFF">
            <path d="M0,13.0043654 C1.626,10.2743654 4.183,7.98436538 7.318,6.79436538 C10.466,5.60336538 14.111,5.77036538 17.208,7.16936538 C20.312,8.63536538 22.521,10.9293654 25.174,12.3543654 C27.803,13.8553654 30.85,14.5733654 34,15.0043654 C30.865,15.4083654 27.501,15.1223654 24.481,13.7533654 C22.961,13.1123654 21.588,12.1933654 20.271,11.3273654 C18.967,10.4383654 17.718,9.57836538 16.378,8.98736538 C15.066,8.34636538 13.619,8.02036538 12.166,7.89536538 C10.713,7.74536538 9.24,7.90036538 7.801,8.27236538 C4.927,9.06736538 2.266,10.7973654 0,13.0043654" id="Fill-1"></path>
            <rect id="Rectangle-Copy-29" stroke="#FFFFFF" stroke-width="0.3" x="0" y="0" width="34" height="1"></rect>
        </g>
    </g>
</svg>
